public/assets/testimonies/lamp-mobile.svg

<svg width="687" height="593" viewBox="0 0 687 593" fill="none" xmlns="http://www.w3.org/2000/svg">
    <path d="M209 83.8091C209 83.8091 208.175 89.3589 255 57.8091L687 477.5L0 592.5L209 83.8091Z" fill="url(#paint0_linear_1621_170)"/>
    <path d="M106.5 196.362H216.854C219.635 196.362 221.889 198.616 221.889 201.396C221.889 204.177 219.635 206.431 216.854 206.431H106.5V196.362Z" fill="#A3C1F5"/>
    <path d="M193.11 189.629H130.722V196.144H193.11V189.629Z" fill="url(#paint1_linear_1621_170)" stroke="white" stroke-miterlimit="10"/>
    <path d="M149.687 170.663H174.153C184.616 170.663 193.118 179.157 193.118 189.629H130.722C130.722 179.165 139.215 170.663 149.687 170.663Z" fill="url(#paint2_linear_1621_170)" stroke="white" stroke-miterlimit="10"/>
    <path d="M199.028 35.7853L190.902 30.7273C185.955 37.1877 181 43.6482 176.053 50.1086C168.199 60.3626 161.288 69.9345 158.968 82.3879C155.696 99.9453 157.183 117.188 157.183 134.846V172.236C157.183 172.236 161.322 175.923 167.06 172.236V140.34C167.06 122.929 165.547 104.781 168.02 87.4995C170.885 67.5128 186.703 51.8636 199.028 35.7776V35.7853Z" fill="url(#paint3_linear_1621_170)" stroke="white" stroke-miterlimit="10"/>
    <path d="M256.71 53.6002C256.71 53.6002 244.456 28.9899 213.279 14.7923C212.85 14.5971 212.231 13.194 211.946 12.8113C208.511 8.19058 203.353 4.21718 197.759 2.64421C190.167 0.501452 183.571 4.99236 182.763 12.8663C182.254 17.8399 183.908 22.8866 186.178 27.2442C186.755 28.3508 189.046 30.9173 189.051 32.0513C189.051 32.0513 189.214 65.5532 205.762 83.8185L256.704 53.5901L256.71 53.6002Z" fill="url(#paint4_linear_1621_170)" stroke="white" stroke-miterlimit="10"/>
    <path d="M189.059 32.0702C189.059 32.0702 194.516 14.7625 213.281 14.8011C213.281 14.8011 211.096 10.784 206.553 7.28042C206.553 7.28042 191.936 5.7204 183.929 21.9757C183.929 21.9757 185.143 27.2085 189.052 32.0601L189.059 32.0702Z" fill="url(#paint5_linear_1621_170)" stroke="white" stroke-miterlimit="10"/>
    <path d="M236.852 78.8783C251.07 70.5738 259.896 59.2184 256.565 53.5154C253.234 47.8124 239.008 49.9214 224.79 58.226C210.571 66.5305 201.745 77.8859 205.076 83.5889C208.407 89.2919 222.634 87.1829 236.852 78.8783Z" fill="#D3EDFD" stroke="white" stroke-miterlimit="10"/>
    <defs>
    <linearGradient id="paint0_linear_1621_170" x1="248.5" y1="-12.6909" x2="363.319" y2="526.265" gradientUnits="userSpaceOnUse">
    <stop stop-color="white"/>
    <stop offset="0.598881" stop-color="#CDEEFC"/>
    <stop offset="1" stop-color="#FFFCFF" stop-opacity="0"/>
    </linearGradient>
    <linearGradient id="paint1_linear_1621_170" x1="130.722" y1="192.886" x2="275.91" y2="196.089" gradientUnits="userSpaceOnUse">
    <stop stop-color="#FFCDF7"/>
    <stop offset="1" stop-color="#0DAEF1"/>
    </linearGradient>
    <linearGradient id="paint2_linear_1621_170" x1="130.722" y1="180.146" x2="253.458" y2="164.249" gradientUnits="userSpaceOnUse">
    <stop stop-color="#FFCDF7"/>
    <stop offset="1" stop-color="#0DAEF1"/>
    </linearGradient>
    <linearGradient id="paint3_linear_1621_170" x1="177.937" y1="30.7273" x2="233.191" y2="50.9124" gradientUnits="userSpaceOnUse">
    <stop stop-color="#FFCDF7"/>
    <stop offset="1" stop-color="#0DAEF1"/>
    </linearGradient>
    <linearGradient id="paint4_linear_1621_170" x1="224.946" y1="8.34802" x2="275.946" y2="133.427" gradientUnits="userSpaceOnUse">
    <stop stop-color="#FFCDF7"/>
    <stop offset="1" stop-color="#0DAEF1"/>
    </linearGradient>
    <linearGradient id="paint5_linear_1621_170" x1="196.303" y1="-36.7761" x2="195.433" y2="33.4156" gradientUnits="userSpaceOnUse">
    <stop stop-color="#0DAEF1"/>
    <stop offset="1" stop-color="#FFCDF7"/>
    </linearGradient>
    </defs>
    </svg>

<svg xmlns="http://www.w3.org/2000/svg" width="687" height="593" fill="none"><path fill="url(#a)" d="M209 83.81s-.825 5.549 46-26L687 477.5 0 592.5z"/><path fill="#A3C1F5" d="M106.5 196.362h110.354a5.034 5.034 0 1 1 0 10.069H106.5z"/><path fill="url(#b)" stroke="#fff" stroke-miterlimit="10" d="M193.11 189.629h-62.388v6.515h62.388z"/><path fill="url(#c)" stroke="#fff" stroke-miterlimit="10" d="M149.687 170.663h24.466c10.463 0 18.965 8.494 18.965 18.966h-62.396c0-10.464 8.493-18.966 18.965-18.966Z"/><path fill="url(#d)" stroke="#fff" stroke-miterlimit="10" d="m199.028 35.785-8.126-5.058c-4.947 6.46-9.902 12.921-14.849 19.382-7.854 10.254-14.765 19.825-17.085 32.279-3.272 17.557-1.785 34.8-1.785 52.458v37.39s4.139 3.687 9.877 0V140.34c0-17.411-1.513-35.559.96-52.84 2.865-19.987 18.683-35.636 31.008-51.722z"/><path fill="url(#e)" stroke="#fff" stroke-miterlimit="10" d="M256.71 53.6s-12.254-24.61-43.431-38.808c-.429-.195-1.048-1.598-1.333-1.98-3.435-4.621-8.593-8.595-14.187-10.168-7.592-2.143-14.188 2.348-14.996 10.222-.509 4.974 1.145 10.02 3.415 14.378.577 1.107 2.868 3.673 2.873 4.807 0 0 .163 33.502 16.711 51.768l50.942-30.229z"/><path fill="url(#f)" stroke="#fff" stroke-miterlimit="10" d="M189.059 32.07s5.457-17.307 24.222-17.269c0 0-2.185-4.017-6.728-7.52 0 0-14.617-1.56-22.624 14.695 0 0 1.214 5.233 5.123 10.084z"/><path fill="#D3EDFD" stroke="#fff" stroke-miterlimit="10" d="M236.852 78.878c14.218-8.304 23.044-19.66 19.713-25.363s-17.557-3.594-31.775 4.711-23.045 19.66-19.714 25.363 17.558 3.594 31.776-4.71Z"/><defs><linearGradient id="a" x1="248.5" x2="363.319" y1="-12.691" y2="526.265" gradientUnits="userSpaceOnUse"><stop stop-color="#fff"/><stop offset=".599" stop-color="#CDEEFC"/><stop offset="1" stop-color="#FFFCFF" stop-opacity="0"/></linearGradient><linearGradient id="b" x1="130.722" x2="275.91" y1="192.886" y2="196.089" gradientUnits="userSpaceOnUse"><stop stop-color="#FFCDF7"/><stop offset="1" stop-color="#0DAEF1"/></linearGradient><linearGradient id="c" x1="130.722" x2="253.458" y1="180.146" y2="164.249" gradientUnits="userSpaceOnUse"><stop stop-color="#FFCDF7"/><stop offset="1" stop-color="#0DAEF1"/></linearGradient><linearGradient id="d" x1="177.937" x2="233.191" y1="30.727" y2="50.912" gradientUnits="userSpaceOnUse"><stop stop-color="#FFCDF7"/><stop offset="1" stop-color="#0DAEF1"/></linearGradient><linearGradient id="e" x1="224.946" x2="275.946" y1="8.348" y2="133.427" gradientUnits="userSpaceOnUse"><stop stop-color="#FFCDF7"/><stop offset="1" stop-color="#0DAEF1"/></linearGradient><linearGradient id="f" x1="196.303" x2="195.433" y1="-36.776" y2="33.416" gradientUnits="userSpaceOnUse"><stop stop-color="#0DAEF1"/><stop offset="1" stop-color="#FFCDF7"/></linearGradient></defs></svg>
